!!!OTL: Folk song Number 24
!!!CNT: Chinese
**kern
*k[f#]
*M2/4
=1
8g
8dd
(16ee
16dd)
(16ee
16dd)
=2
8dd
(16ee
16dd)
4b
=3
(4.dd
8ee)
=4
8b
8b
(16ee
16dd)
[8b
=5
2b]
=6
16ee
16ee
8dd
16ee
16dd
8b
=7
(8ee
4dd
8ee)
=8
(16ee
[4..b
=9
2b)]
=10
8ee
8dd
(16b
16dd)
(16ee
16dd)
=11
8g
8dd
(16ee
16dd)
8b
=12
(4.dd
8ee)
=13
8dd
8ee
8g
8dd
=14
2b
=15
8ee
8dd
8b
[(8dd
=16
4.dd]
8ee)
=17
(16ee
[4..b
=18
2b)]
==
*-
!!!PPR: Yin yueh ch'u pan she
!!!OPR: Chung-kuo min ko Chung-kuo yin yueh yen chiu so pien [Chinese folk songs]
!!!OCL: Chung-kuo yin yueh yen chiu so
!!!PPP: Beijing, China
!!!PDT: 1959///
!!!SML: Edward Johnson Library, University of Toronto M1804.C4694C5
!!!PPG: p.19
!!!ENC: David Huron
!!!EMD: Paul von Hippel updated this file in the following ways (1998/9/29/):
!!!EMD:  (1) changed the representation of slurs from curly braces to parentheses 
!!!EMD:  (2) changed freeform comments into reference records and tandem interpretations
!!!EMD:  (3) corrected the author, title, author, and call number of the printed source 
!!!EEV: Version 2.0
